material/.icons/material/zodiac-libra.svg

<svg xmlns="http://www.w3.org/2000/svg" viewBox="0 0 24 24"><path d="M20 16v2h-7v-2.09c3-.55 4.96-3.41 4.41-6.41-.55-3-3.41-4.96-6.41-4.41-3 .56-4.96 3.41-4.41 6.41.41 2.24 2.17 4 4.41 4.41V18H4v-2h2.92a7.428 7.428 0 01-2.42-5.5A7.5 7.5 0 0112 3a7.5 7.5 0 017.5 7.5c0 2.09-.87 4.09-2.42 5.5H20m0 3H4v2h16v-2z"/></svg>

<?xml version="1.0" encoding="UTF-8"?><!DOCTYPE svg PUBLIC "-//W3C//DTD SVG 1.1//EN" "http://www.w3.org/Graphics/SVG/1.1/DTD/svg11.dtd"><svg xmlns="http://www.w3.org/2000/svg" xmlns:xlink="http://www.w3.org/1999/xlink" version="1.1" id="mdi-zodiac-libra" width="24" height="24" viewBox="0 0 24 24"><path d="M20,16V18H13V15.91C16,15.36 17.96,12.5 17.41,9.5C16.86,6.5 14,4.54 11,5.09C8,5.65 6.04,8.5 6.59,11.5C7,13.74 8.76,15.5 11,15.91V18H4V16H6.92C5.37,14.59 4.5,12.59 4.5,10.5A7.5,7.5 0 0,1 12,3A7.5,7.5 0 0,1 19.5,10.5C19.5,12.59 18.63,14.59 17.08,16H20M20,19H4V21H20V19Z" /></svg>
